X:1
T:Title
%%score ( 1 2 3 ) ( 4 5 6 )
L:1/8
Q:1/4=130
M:2/2
K:D
V:1 bass nm="Grand Piano, Tenor"
V:2 bass 
V:3 bass 
V:4 bass nm="Grand Piano, Bass"
V:5 bass 
V:6 bass 
V:1
 F,2 [F,A,][F,B,]- [F,B,]2 [F,B,]2 | [F,^A,]2 [F,C]2 [F,B,]2 F,2 | %2
w: 1.~The~ proph et * ic~|days~ of~ burn ing,~|
 [D,B,]2 [E,B,][F,B,]- [F,B,]2 [D,B,]2 | [E,C]2 [A,C]2 [F,C]4 | F,2 [F,A,][F,B,]- [F,B,]2 [F,B,]2 | %5
w: Lo,~ in~ won * der~|we~ be hold;~|And~ the~ flames~ * are~|
 [F,^A,]2 [F,C]2 [F,B,]2 F,2 | [F,^A,]2 [A,C][G,B,]- [G,B,]2 [G,B,]2 | [B,D]2 [G,D]2 [^A,C]4 | %8
w: now~ con sum ing~|Eve ry thing~ * but~|pur est~ gold.~|
 z2 z C- C2 z2 | z8 | D4 z4 | [E,C]2 [A,C]2 [F,C]4 | F,2 A,[F,B,]- [F,B,]2 [F,B,]2 | %13
w: |||||
 [F,^A,]2 [F,C]2 [F,B,]2 F,2 | F,2 [F,A,][F,B,]- [F,B,]2 [F,C]2 | [G,D]4 [F,^A,]4 | [F,B,]8 |] %17
w: ||||
V:2
 x8 | x8 | x8 | x8 | x8 | x8 | x8 | x8 | [F,B,]2 F,F, z2 A,2 | D2 A,F,- F,2 D,2 | %10
 D,2 E,[F,D]- [F,D]2 [D,D]2 | x8 | x8 | x8 | x8 | x8 | x8 |] %17
V:3
 x8 | x8 | x8 | x8 | x8 | x8 | x8 | x8 | z4 F,4- | F,4 z4 | x8 | x8 | x8 | x8 | x8 | x8 | x8 |] %17
V:4
 [B,,D,]2 [B,,D,][B,,D,]- [B,,D,]2 [B,,D,]2 | [C,E,]2 [C,E,]2 [B,,D,]2 [B,,D,]2 | %2
 [G,,B,,]2 [G,,B,,][F,,B,,]- [F,,B,,]2 [F,,B,,]2 | [A,,C,]2 [A,,C,]2 [F,,C,]4 | %4
 [B,,D,]2 [B,,D,][B,,D,]- [B,,D,]2 [B,,D,]2 | [C,E,]2 [C,E,]2 [B,,D,]2 [B,,D,]2 | %6
 [^A,,C,]2 [A,,C,][G,,D,]- [G,,D,]2 [G,,D,]2 | [E,,B,,]2 [E,,B,,]2 [F,,C,]4 | .F,3 F,- F,2 z2 | %9
 z8 | z8 | z8 | [B,,D,]3 [B,,D,]- [B,,D,]2 [B,,D,]2 | [C,E,]2 [C,E,]2 [B,,D,]2 [B,,D,]2 | %14
 [B,,D,]2 [B,,D,][B,,D,]- [B,,D,]2 [^A,,C,]2 | [G,,D,]4 [F,,C,]4 | [B,,D,]8 |] %17
V:5
 x8 | x8 | x8 | x8 | x8 | x8 | x8 | x8 | z4 C,4- | C,8- | C,8- | C,2 z2 z4 | x8 | x8 | x8 | x8 | %16
 x8 |] %17
V:6
 x8 | x8 | x8 | x8 | x8 | x8 | x8 | x8 | B,,2- [B,,D,]C, z2 E,2 | D,2 A,,F,,- F,,2 D,,2 | %10
 [G,,B,,]3 [F,,B,,]- [F,,B,,]2 [F,,B,,]2 | A,,2 [A,,C,]2 [F,,C,]4 | x8 | x8 | x8 | x8 | x8 |] %17

